X: 1604
T: Coey's Hornpipe
R:hornpipe
N:"Collected by J. O'Neill"
B:O'Neill's 1604
Z:Transcribed by Michael Hogan
M:C|
L:1/8
K:G
(3DEF | GdBG FcAF | GABG D2 (GF) | EGAB cBAG | FAd^c (3fed (3ecA |
GdBG FcAF | GABG D2 (GF) | E>edc BAGF | A2 G2 G2 :|
|: (AG) | FAd^c dBAG | FAd^c dfed | ^cdef gece | d^cde d2 d=c |
BcBA GBec | ABAG FAdf | egfe dcBA | G2 B2 G2 :||


